img/add-black.svg

<svg width="19" height="19" viewBox="0 0 19 19" fill="none" xmlns="http://www.w3.org/2000/svg">
<path d="M17.8608 8.36055L10.4717 8.38289V1.13924C10.4717 0.508091 9.96362 0 9.33246 0C8.70151 0 8.19322 0.508091 8.19322 1.13924L8.21556 8.36076H1.13924C0.508091 8.36076 0 8.86885 0 9.5C0 10.131 0.508091 10.639 1.13924 10.639H8.20439V17.8608C8.20439 18.4915 8.71248 19 9.34363 19C9.97479 19 10.4829 18.4915 10.4829 17.8608V10.6392H17.8608C18.4919 10.6392 19 10.1307 19 9.5C19 8.86864 18.4862 8.36055 17.8608 8.36055Z" fill="black"/>
</svg>

<svg width="19" height="19" fill="none" xmlns="http://www.w3.org/2000/svg"><path d="M17.86 8.36l-7.388.023V1.139C10.472.51 9.964 0 9.332 0c-.63 0-1.139.508-1.139 1.14l.023 7.22H1.139a1.14 1.14 0 10.001 2.279h7.064v7.222c0 .63.508 1.139 1.14 1.139.63 0 1.139-.509 1.139-1.14v-7.22h7.378a1.14 1.14 0 000-2.279z" fill="#000"/></svg>
